X: 1
T: Speed The Plow
M: 4/4
L: 1/8
R: reel
K: Amaj
ABcd efec|efec efec|dfdB cAcA|BAGF EFGB|
ABcd efec|efec efec|dfdB cAcA|1 BAGB A2A2:|2 BAGB A2(3efg|
|:a2a2 aece|aAgA fAeA|dfdB cAcA|BAGF EFGB|
Aa2g aece|aAgA fAeA|dfdB cAcA|BAGB A2A2:||
